X:69
T:Kas a-barh
C:Skeduz "Rag ar plinn"
M:4/4
L:1/8
K:G
G2GB d2dc|BAce d2g2|f2e2 d3c|1 B2e2 dcBA:|2  B2e2 d4||
|:BcBA B2G2 |G2FG A3B|cdcA B2G2|(3BAG AF G4:|
